32x32/apps/com.zandronum.Zandronum.svg

<svg xmlns="http://www.w3.org/2000/svg" width="32" height="32" version="1.1">
 <path style="opacity:0.2" d="m 3.0035739,11.670703 0,5.329297 c 0,1.182951 -0.094209,3.219306 0.6847542,4.167187 1.2956453,2.17091 4.072108,6.868802 5.1376913,9.019337 C 9.1737819,30.829737 9.9456159,30.999999 10.919604,31 L 15.5,31 l 4.580396,0 c 0.973988,-1e-6 1.745822,-0.170263 2.093585,-0.813476 1.065583,-2.150535 3.842045,-6.848427 5.137691,-9.019337 C 28.090635,20.219306 27.996426,18.182951 27.996426,17 l 0,-5.329297 C 27.996426,7.2 22.442459,3 15.5,3 8.5575409,3 3.0035739,7.2 3.0035739,11.670703 Z"/>
 <path style="fill:#6e6e6e" d="m 3.0035739,10.670703 0,5.329297 c 0,1.182951 -0.094209,3.219306 0.6847542,4.167187 1.2956453,2.17091 4.072108,6.868802 5.1376913,9.019337 C 9.1737819,29.829737 9.9456159,29.999999 10.919604,30 L 15.5,30 l 4.580396,0 c 0.973988,-1e-6 1.745822,-0.170263 2.093585,-0.813476 1.065583,-2.150535 3.842045,-6.848427 5.137691,-9.019337 C 28.090635,19.219306 27.996426,17.182951 27.996426,16 l 0,-5.329297 C 27.996426,6.2 22.442459,2 15.5,2 8.5575409,2 3.0035739,6.2 3.0035739,10.670703 Z"/>
 <path style="opacity:0.2" d="m 4.7496745,15.976073 c -0.8097576,0.0056 -1.6197293,0.01774 -1.7456054,0.03691 l 0,0.68747 c 0,1.182951 -0.09537,2.518849 0.6835937,3.46673 1.2956453,2.17091 4.0722205,6.868802 5.1378038,9.019337 C 9.1732291,29.829737 9.9456624,29.999999 10.919651,30 L 15.5,30 l 4.580349,0 c 0.973989,-1e-6 1.746421,-0.170263 2.094184,-0.813476 1.065583,-2.150535 3.842158,-6.848427 5.137804,-9.019337 0.778963,-0.947881 0.683594,-2.283779 0.683594,-3.46673 l 0,-0.68747 C 27.8503,16.012994 24.950785,15.99316 24.823459,16 22,15.976073 22.117848,16.984366 20.956,18.800457 19.865841,20.682956 19.861351,23.031256 19.316732,24.4 18.550229,21.758314 18.972222,16.5 15.5,16.5 c -3.472222,0 -3.050229,5.258314 -3.816732,7.9 C 11.138649,23.031256 11.434159,20.682956 10.344,18.800457 9.5892986,17.521826 8.3375437,16.0839 6.682,15.978806 c -0.1116285,-0.0071 -1.1206811,-0.0084 -1.9323255,-0.0027 z"/>
 <path style="opacity:0.15" d="M 10.919651,30 15.5,30 20.080349,30 19.316732,24.4 C 18.550229,21.758314 18.972222,16.7 15.5,16.7 c -3.472222,0 -3.050229,5.058314 -3.816732,7.7 z"/>
 <path style="opacity:0.2" d="m 6,15 0,2 c 2.069493,-0.323989 3.0879687,1.348941 3.9444444,2.8 1.0901586,1.882499 1.1942046,4.331256 1.7388236,5.7 C 12.449771,22.858314 12.027778,18 15.5,18 c 3.472222,0 3.050229,4.858314 3.816732,7.5 0.544619,-1.368744 0.648664,-3.817501 1.738823,-5.7 C 22.295467,17.861888 22.796594,17 25,17 l 0,-2 -9.5,0 z"/>
 <path style="fill:#7ac4eb" d="m 6,14 0,2 c 2.069493,-0.323989 3.0879687,1.348941 3.9444444,2.8 1.0901586,1.882499 1.1942046,4.331256 1.7388236,5.7 C 12.449771,21.858314 12.027778,17 15.5,17 c 3.472222,0 3.050229,4.858314 3.816732,7.5 0.544619,-1.368744 0.648664,-3.817501 1.738823,-5.7 C 22.295467,16.861888 22.796594,16 25,16 l 0,-2 -9.5,0 z"/>
 <path style="opacity:0.1;fill:#f4f4f7" d="M 15.5 2 C 8.5575409 2 3.0039062 6.1992189 3.0039062 10.669922 L 3.0039062 11.669922 C 3.0039062 7.1992189 8.5575409 3 15.5 3 C 22.442459 3 27.996094 7.1992189 27.996094 11.669922 L 27.996094 10.669922 C 27.996094 6.1992189 22.442459 2 15.5 2 z M 3.0039062 16 C 3.0039062 16.306247 2.9997495 16.671648 3.0039062 17.058594 C 3.0039424 17.041217 3.0039062 17.017029 3.0039062 17 L 3.0039062 16 z M 27.996094 16 L 27.996094 17 C 27.996094 17.017029 27.996058 17.041217 27.996094 17.058594 C 28.00025 16.671648 27.996094 16.306247 27.996094 16 z"/>
 <path style="opacity:0.1;fill:#f4f4f7" d="M 6 14 L 6 15 L 15.5 15 L 25 15 L 25 14 L 15.5 14 L 6 14 z"/>
</svg>

<svg xmlns="http://www.w3.org/2000/svg" width="32" height="32"><path style="opacity:.2" d="M3.004 11.67V17c0 1.183-.095 3.22.684 4.167 1.296 2.171 4.072 6.869 5.138 9.02.348.643 1.12.813 2.094.813h9.16c.974 0 1.746-.17 2.094-.813 1.066-2.151 3.842-6.849 5.138-9.02.779-.948.684-2.984.684-4.167v-5.33C27.996 7.2 22.442 3 15.5 3S3.004 7.2 3.004 11.67z"/><path style="fill:#6e6e6e" d="M3.004 10.67V16c0 1.183-.095 3.22.684 4.167 1.296 2.171 4.072 6.869 5.138 9.02.348.643 1.12.813 2.094.813h9.16c.974 0 1.746-.17 2.094-.813 1.066-2.151 3.842-6.849 5.138-9.02.779-.948.684-2.984.684-4.167v-5.33C27.996 6.2 22.442 2 15.5 2S3.004 6.2 3.004 10.67z"/><path style="opacity:.2" d="M4.75 15.976c-.81.006-1.62.018-1.746.037v.687c0 1.183-.095 2.52.684 3.467 1.295 2.171 4.072 6.869 5.137 9.02.348.643 1.12.813 2.095.813h9.16c.974 0 1.747-.17 2.095-.813 1.065-2.151 3.842-6.849 5.137-9.02.78-.948.684-2.284.684-3.467v-.687c-.146 0-3.045-.02-3.173-.013-2.823-.024-2.705.984-3.867 2.8-1.09 1.883-1.095 4.231-1.64 5.6-.766-2.642-.344-7.9-3.816-7.9s-3.05 5.258-3.817 7.9c-.544-1.369-.249-3.717-1.339-5.6-.755-1.278-2.006-2.716-3.662-2.821a83.669 83.669 0 0 0-1.932-.003z"/><path style="opacity:.15" d="M10.92 30h9.16l-.763-5.6c-.767-2.642-.345-7.7-3.817-7.7-3.472 0-3.05 5.058-3.817 7.7z"/><path style="opacity:.2" d="M6 15v2c2.07-.324 3.088 1.349 3.944 2.8 1.09 1.882 1.195 4.331 1.74 5.7.766-2.642.344-7.5 3.816-7.5s3.05 4.858 3.817 7.5c.544-1.369.648-3.818 1.739-5.7 1.24-1.938 1.74-2.8 3.944-2.8v-2h-9.5z"/><path style="fill:#7ac4eb" d="M6 14v2c2.07-.324 3.088 1.349 3.944 2.8 1.09 1.882 1.195 4.331 1.74 5.7.766-2.642.344-7.5 3.816-7.5s3.05 4.858 3.817 7.5c.544-1.369.648-3.818 1.739-5.7 1.24-1.938 1.74-2.8 3.944-2.8v-2h-9.5z"/><path style="opacity:.1;fill:#f4f4f7" d="M15.5 2C8.558 2 3.004 6.2 3.004 10.67v1C3.004 7.2 8.558 3 15.5 3s12.496 4.2 12.496 8.67v-1C27.996 6.2 22.442 2 15.5 2zM3.004 16c0 .306-.004.672 0 1.059V16zm24.992 0v1.059c.004-.387 0-.753 0-1.059zM6 14v1h19v-1H6z"/></svg>
